app/assets/images/heroicons/micro/video-camera-slash.svg

<svg width="16" height="16" viewBox="0 0 16 16" fill="none" xmlns="http://www.w3.org/2000/svg">
<path d="M1 10V6.68198L6.31802 12H3C1.89543 12 1 11.1046 1 10Z" fill="black"/>
<path d="M10 6V9.31802L4.68198 4H8C9.10457 4 10 4.89543 10 6Z" fill="black"/>
<path d="M14.537 4.05711C14.8173 4.1732 15 4.44668 15 4.75002V11.25C15 11.5534 14.8173 11.8268 14.537 11.9429C14.2568 12.059 13.9342 11.9949 13.7197 11.7804L11.7197 9.78035C11.579 9.6397 11.5 9.44893 11.5 9.25002V6.75002C11.5 6.55111 11.579 6.36034 11.7197 6.21969L13.7197 4.21969C13.9342 4.00519 14.2568 3.94103 14.537 4.05711Z" fill="black"/>
<path d="M2.78033 4.21967C2.48744 3.92678 2.01256 3.92678 1.71967 4.21967C1.42678 4.51256 1.42678 4.98744 1.71967 5.28033L8.21967 11.7803C8.51256 12.0732 8.98744 12.0732 9.28033 11.7803C9.57322 11.4874 9.57322 11.0126 9.28033 10.7197L2.78033 4.21967Z" fill="black"/>
</svg>

<svg xmlns="http://www.w3.org/2000/svg" viewBox="0 0 16 16" fill="currentColor" aria-hidden="true" data-slot="icon">
  <path d="M1 10V6.682L6.318 12H3a2 2 0 0 1-2-2ZM10 6v3.318L4.682 4H8a2 2 0 0 1 2 2ZM14.537 4.057A.75.75 0 0 1 15 4.75v6.5a.75.75 0 0 1-1.28.53l-2-2a.75.75 0 0 1-.22-.53v-2.5a.75.75 0 0 1 .22-.53l2-2a.75.75 0 0 1 .817-.163ZM2.78 4.22a.75.75 0 0 0-1.06 1.06l6.5 6.5a.75.75 0 0 0 1.06-1.06l-6.5-6.5Z"/>
</svg>
